!!! OTL: Berkowitz447
!!! Chapter: 1
!!! Section: IV
!!! Page: 111
!!! Mode: 
!!! Encoder: DJB
**kern
*staff1
*I"Piano
=1-
*clefC3
*k[f#c#]
*D:
*M4/4
2a\
8g#\L
8a\
8b\
8a\J
=2
4g\
4f#\
4e\
4d\
=3
2B-/
4A/
4g\
=4
2f#\
4g\
4a\
=5
2b-\
8a\L
8b-\
8ccn\
8b-\J
=6
4g\
2e-\
4d\
=7
4c#\
4e\
4A/
4g\
=8
2f#\
4g\
4g#\
=9
2a\
8g#\L
8a\
8b\
8a\J
=10
!!linebreak:original
4g\
4f#\
4e\
4d\
=11
2B-/
4A/
4a\
=12
1b-
=13
4b-\
4g\
4e-\
4d\
=14
4c#\
4b-\
4a\
4g\
=15
4.f#\
8d#\
8e\L
8d#\
8e\
8f#\J
=16
2d\
2r
==
*-
